22x22/apps/com.gexperts.Terminix.svg

<svg xmlns="http://www.w3.org/2000/svg" width="22" height="22" version="1"><rect style="opacity:.2" width="20" height="18" x="1" y="2.5" rx="1.5" ry="1.5"/><path style="fill:#4f4f4f" d="M11 2v18H2.5c-.831 0-1.5-.669-1.5-1.5v-15C1 2.669 1.669 2 2.5 2z"/><path style="fill:#17191e" d="M11 2v18h8.5c.831 0 1.5-.669 1.5-1.5v-15c0-.831-.669-1.5-1.5-1.5z"/><path style="opacity:.2;fill:none;stroke:#000;stroke-linecap:round;stroke-linejoin:round" d="m3.5 5 2 1.5-2 1.5"/><path style="fill:none;stroke:#f4f4f7;stroke-linecap:round;stroke-linejoin:round" d="m3.5 4.5 2 1.5-2 1.5"/><path style="opacity:.2;fill:none;stroke:#000;stroke-linecap:round;stroke-linejoin:round" d="M6.5 8h2"/><path style="fill:none;stroke:#f4f4f7;stroke-linecap:round;stroke-linejoin:round" d="M6.5 7.5h2"/><path style="opacity:.1;fill:#f4f4f7" d="M2.5 2C1.669 2 1 2.669 1 3.5V4c0-.831.669-1.5 1.5-1.5h17c.831 0 1.5.669 1.5 1.5v-.5c0-.831-.669-1.5-1.5-1.5z"/><path style="opacity:.2;fill:none;stroke:#000;stroke-linecap:round;stroke-linejoin:round" d="m13.5 5 2 1.5-2 1.5"/><path style="fill:none;stroke:#f4f4f7;stroke-linecap:round;stroke-linejoin:round" d="m13.5 4.5 2 1.5-2 1.5"/><path style="opacity:.2;fill:none;stroke:#000;stroke-linecap:round;stroke-linejoin:round" d="M16.5 8h2"/><path style="fill:none;stroke:#f4f4f7;stroke-linecap:round;stroke-linejoin:round" d="M16.5 7.5h2"/></svg>

<svg xmlns="http://www.w3.org/2000/svg" width="22" height="22" version="1">
 <rect style="opacity:0.2" width="20" height="18" x="1" y="2.5" rx="1.5" ry="1.5"/>
 <path style="fill:#4f4f4f" d="M 11,2 V 20 H 2.5 C 1.669,20 1,19.331 1,18.5 V 3.5 C 1,2.669 1.669,2 2.5,2 Z"/>
 <path style="fill:#17191e" d="m 11,2 v 18 h 8.5 C 20.331,20 21,19.331 21,18.5 V 3.5 C 21,2.669 20.331,2 19.5,2 Z"/>
 <path style="opacity:0.2;fill:none;stroke:#000000;stroke-linecap:round;stroke-linejoin:round" d="m 3.5,4.9997073 2,1.5 -2,1.5"/>
 <path style="fill:none;stroke:#f4f4f7;stroke-linecap:round;stroke-linejoin:round" d="m 3.5,4.5 2,1.5 -2,1.5"/>
 <path style="opacity:0.2;fill:none;stroke:#000000;stroke-linecap:round;stroke-linejoin:round" d="m 6.5,7.9997073 h 2"/>
 <path style="fill:none;stroke:#f4f4f7;stroke-linecap:round;stroke-linejoin:round" d="m 6.5,7.5 h 2"/>
 <path style="opacity:0.1;fill:#f4f4f7" d="M 2.5,2 C 1.669,2 1,2.669 1,3.5 V 4 C 1,3.169 1.669,2.5 2.5,2.5 h 17 C 20.331,2.5 21,3.169 21,4 V 3.5 C 21,2.669 20.331,2 19.5,2 Z"/>
 <path style="opacity:0.2;fill:none;stroke:#000000;stroke-linecap:round;stroke-linejoin:round" d="m 13.499707,4.9997073 2,1.5 -2,1.5"/>
 <path style="fill:none;stroke:#f4f4f7;stroke-linecap:round;stroke-linejoin:round" d="m 13.499707,4.5 2,1.5 -2,1.5"/>
 <path style="opacity:0.2;fill:none;stroke:#000000;stroke-linecap:round;stroke-linejoin:round" d="m 16.499707,7.9997073 h 2"/>
 <path style="fill:none;stroke:#f4f4f7;stroke-linecap:round;stroke-linejoin:round" d="m 16.499707,7.5 h 2"/>
</svg>
